X:1
T:Title
%%score { ( 1 3 ) | ( 2 4 ) }
L:1/8
M:2/4
K:Ab
V:1 treble nm="Grand Piano"
V:3 treble 
V:2 bass 
V:4 bass 
V:1
 z2 z[Q:1/4=82] [A,CE] | [CEA][CEA] [CEA][A,CE] | [A,EA]B c[CE] | [DF][Fd] [Ec]>[EA] | %4
[M:3/8] [EB]3 |[M:1/8] [G,DE] |[M:2/4] [A,CA][CEA] [CEA][A,CE] | [A,EA][EB] [Ec][A,CE] | %8
 [A,DF][DFB] [CEA]>[B,EG] |[M:3/8] [CEA]3 |[M:1/8] A |[M:2/4] ce e>f | e4 | [Af][Af] [Ae]>[Ac] | %14
[M:3/8] [GB]3 |[M:1/8] [G,E] |[M:2/4] [A,CA][CEA] [CEA][A,CE] | [A,EA][EB] [Ec][A,CE] | %18
 [A,DF][DFB] [CEA]>[B,EG] |[M:3/8] [CEA]3 |] %20
V:2
 z2 z A,, | A,,A,, A,,A,, | C,[E,G,E] [A,E][A,,A,] | [D,A,][E,A,] [A,,A,]>[C,A,] |[M:3/8] [E,G,]3 | %5
[M:1/8] E, |[M:2/4] A,,A,, A,,A,, | C,[E,G,] A,A,, | D,B,, E,>E, |[M:3/8] A,,3 | %10
[M:1/8][K:treble] [A,C] |[M:2/4] [A,E][A,CA] [A,CA]>[A,DA] | A4 | [D,D][F,D] [A,C]>[A,E] | %14
[M:3/8] [E,E]E,E, |[M:1/8] z/ D/ |[M:2/4] A,,A,, A,,A,, | C,[E,G,] A,A,, | D,B,, E,>E, | %19
[M:3/8] A,,3 |] %20
V:3
 x4 | x4 | x4 | x4 |[M:3/8] x3 |[M:1/8] x |[M:2/4] x4 | x4 | x4 |[M:3/8] x3 |[M:1/8] x | %11
[M:2/4] x4 | z C Ce | x4 |[M:3/8] z EE |[M:1/8] x |[M:2/4] x4 | x4 | x4 |[M:3/8] x3 |] %20
V:4
 x4 | x4 | x4 | x4 |[M:3/8] x3 |[M:1/8] x |[M:2/4] x4 | x4 | x4 |[M:3/8] x3 |[M:1/8][K:treble] x | %11
[M:2/4] x4 | [A,C]A, A,[A,CA] | x4 |[M:3/8] x3 |[M:1/8] E, |[M:2/4] x4 | x4 | x4 |[M:3/8] x3 |] %20

